**kern	**silbe	**kern	**silbe
*ICvox	*	*ICvox	*
*G:	*	*C:	*
*M4/4	*	*M4/4	*
*clefG2	*	*clefG2	*
r;	.	r;	.
=1	=1	=1	=1
1r	.	1r	.
=2	=2	=2	=2
1r	.	1r	.
=3	=3	=3	=3
1r	.	1r	.
=4	=4	=4	=4
1r	.	1r	.
=5	=5	=5	=5
8E	sit-	1r	.
8G	-tin	.	.
8G	in	.	.
8G	the	.	.
8A	morn-	.	.
8G	_	.	.
8G	-in	.	.
8B-	sun	.	.
=6	=6	=6	=6
4B	_	1r	.
2r	.	.	.
8B	I'll	.	.
8B	be	.	.
=7	=7	=7	=7
8c	sit-	1r	.
8c	-tin	.	.
8c	when	.	.
8c	the	.	.
8c	eve-	.	.
8B	_	.	.
8B-	-ning	.	.
16A	comes	.	.
16B	_	.	.
=8	=8	=8	=8
4A	_	1r	.
4r	.	.	.
2r	.	.	.
=9	=9	=9	=9
8E	watch-	1r	.
4G	-in	.	.
8G	the	.	.
4A	ships	.	.
8G	roll	.	.
16B-	in	.	.
[16B	_	.	.
=10	=10	=10	=10
16B]	_	1r	.
16A	_	.	.
8G	_	.	.
4r	.	.	.
8r	.	.	.
8B	and	.	.
8B	then	.	.
8B	I	.	.
=11	=11	=11	=11
8c	watch	1r	.
8c	'em	.	.
8c	roll	.	.
8c	a-	.	.
8d	-way	.	.
8B	_	.	.
8B	a-	.	.
8B	-gain	.	.
=12	=12	=12	=12
4A	_	1r	.
8r	.	.	.
16B	yeah	.	.
16A	_	.	.
8G	_	.	.
8r	.	.	.
8r	.	.	.
8E	I'm	.	.
=13	=13	=13	=13
8G	sit-	1r	.
8G	-tin	.	.
8G	on	.	.
8G	the	.	.
8G	dock	.	.
8G	of	.	.
8G	the	.	.
8A	bay	.	.
=14	=14	=14	=14
16G	_	1r	.
16E	_	.	.
8r	.	.	.
4r	.	.	.
8A	watch-	.	.
8B	-in	.	.
8B	the	.	.
16d	tide	.	.
16e	_	.	.
=15	=15	=15	=15
8d	_	1r	.
16B	_	.	.
16A	_	.	.
8G	_	.	.
8r	.	.	.
8B	roll	.	.
8A	_	.	.
8G	a-	.	.
8A	-way	.	.
=16	=16	=16	=16
16G	_	1r	.
16E	_	.	.
8r	.	.	.
8r	.	.	.
8e	ooh	.	.
8G	_	.	.
8A	I'm	.	.
4A	just	.	.
=17	=17	=17	=17
8G	sit-	1r	.
8G	-tin	.	.
8G	on	.	.
8G	the	.	.
8G	dock	.	.
8G	of	.	.
8G	the	.	.
8A	bay	.	.
=18	=18	=18	=18
16G	_	1r	.
16E	_	.	.
8r	.	.	.
4r	.	.	.
8A	wast-	.	.
8G	_	.	.
8E	-in	.	.
[8G	time	.	.
=19	=19	=19	=19
4.G]	_	1r	.
16B	_	.	.
16A	_	.	.
2G	_	.	.
=20	=20	=20	=20
2E	_	1r	.
4r	.	.	.
8r	.	.	.
8E	I	.	.
=21	=21	=21	=21
8G	left	1r	.
4.G	my	.	.
8A	home	.	.
8G	_	.	.
8G	in	.	.
8B-	Georg-	.	.
=22	=22	=22	=22
8B	-ia	1r	.
16B	_	.	.
16A	_	.	.
8G	_	.	.
8r	.	.	.
4r	.	.	.
8r	.	.	.
[8c	head-	.	.
=23	=23	=23	=23
8c]	_	1r	.
8c	-ed	.	.
8c	for	.	.
8c	the	.	.
8c	'Fris-	.	.
4B	-co	.	.
8B	bay	.	.
=24	=24	=24	=24
4A	_	1r	.
4r	.	.	.
4r	.	.	.
8r	.	.	.
8E	'cause	.	.
=25	=25	=25	=25
8G	I've	1r	.
4.G	had	.	.
8A	no-	.	.
8G	-thing	.	.
8G	to	.	.
16B-	live	.	.
[16B	_	.	.
=26	=26	=26	=26
8B]	_	1r	.
16B	for	.	.
16A	_	.	.
8G	_	.	.
8r	.	.	.
8r	.	.	.
8G	and	.	.
8B	look	.	.
8B	like	.	.
=27	=27	=27	=27
8c	no-	1r	.
8c	-thin's	.	.
8c	gon-	.	.
8c	-na	.	.
8c	come	.	.
8B	my	.	.
8B-	_	.	.
[8A	way	.	.
=28	=28	=28	=28
8A]	_	1r	.
8r	.	.	.
8r	.	.	.
16B	So	.	.
16A	_	.	.
8G	_	.	.
8G	I'm	.	.
8G	just	.	.
8E	gon'	.	.
=29	=29	=29	=29
4G	sit	1r	.
8G	on	.	.
8E	the	.	.
8G	dock	.	.
8G	of	.	.
8G	the	.	.
8A	bay	.	.
=30	=30	=30	=30
16G	_	1r	.
16E	_	.	.
8r	.	.	.
4r	.	.	.
8A	watch-	.	.
8B	-in	.	.
8B	the	.	.
16d	tide	.	.
16e	_	.	.
=31	=31	=31	=31
8d	_	1r	.
16B	_	.	.
16A	_	.	.
8G	_	.	.
8r	.	.	.
8B	roll	.	.
8A	_	.	.
8G	a-	.	.
8A	-way	.	.
=32	=32	=32	=32
16G	_	1r	.
16E	_	.	.
8r	.	.	.
8r	.	.	.
8r	.	.	.
4e	ooh	.	.
8A	_	.	.
8E	I'm	.	.
=33	=33	=33	=33
8G	sit-	1r	.
8G	-tin	.	.
8G	on	.	.
8G	the	.	.
8G	dock	.	.
8G	of	.	.
8G	the	.	.
8A	bay	.	.
=34	=34	=34	=34
16G	_	1r	.
16E	_	.	.
8r	.	.	.
4r	.	.	.
8A	wast-	.	.
8G	_	.	.
8E	-in	.	.
[8G	time	.	.
=35	=35	=35	=35
4.G]	_	1r	.
16B	_	.	.
16A	_	.	.
4.G	_	.	.
[8E	_	.	.
=36	=36	=36	=36
2E]	_	1r	.
2r	.	.	.
=37	=37	=37	=37
4r	.	1r	.
8r	.	.	.
8g	Look	.	.
4e	like	.	.
8r	.	.	.
8g	no-	.	.
=38	=38	=38	=38
8e	-thin's	1r	.
8e	gon-	.	.
8d	-na	.	.
16B	change	.	.
16A	_	.	.
8G	_	.	.
16A	_	.	.
[16B	_	.	.
8B]	_	.	.
16A	_	.	.
[16G	_	.	.
=39	=39	=39	=39
4G]	_	1r	.
8r	.	.	.
[8e	Ev	.	.
8e]	_	.	.
8d	-ry-	.	.
[4d	-thing	.	.
=40	=40	=40	=40
8d]	_	1r	.
16B	still	.	.
16A	_	.	.
8G	_	.	.
8G	re-	.	.
8B	-mains	.	.
8A	the	.	.
8A	same	.	.
[8G	_	.	.
=41	=41	=41	=41
8G]	_	1r	.
8r	.	.	.
8r	.	.	.
8g	I	.	.
8e	can't	.	.
8.e	do	.	.
[16d	what	.	.
8d]	_	.	.
=42	=42	=42	=42
8g	ten	1r	.
8e	peop-	.	.
8d	-le	.	.
8e	tell	.	.
8d	me	.	.
8B	to	.	.
8A	do	.	.
8G	_	.	.
=43	=43	=43	=43
4r	.	1r	.
8f	so	.	.
8f	I	.	.
8f	guess	.	.
8f	I'll	.	.
8d	re-	.	.
16f	-main	.	.
16e	_	.	.
=44	=44	=44	=44
8d	_	1r	.
8B	the	.	.
16f	same	.	.
16e	_	.	.
[8d	_	.	.
8d]	_	.	.
8r	.	.	.
4r	.	.	.
=45	=45	=45	=45
8E	sit-	1r	.
8G	-tin	.	.
4G	here	.	.
8A	rest-	.	.
8G	-ing	.	.
8G	my	.	.
8B-	bones	.	.
=46	=46	=46	=46
8B	_	1r	.
16B	_	.	.
16A	_	.	.
8G	_	.	.
8r	.	.	.
8r	.	.	.
8G	and	.	.
8B	this	.	.
[8c	lone-	.	.
=47	=47	=47	=47
8c]	_	1r	.
8c	-li-	.	.
8c	-ness	.	.
8c	won't	.	.
8c	leave	.	.
8B	me	.	.
8B	a-	.	.
8B	-lone	.	.
=48	=48	=48	=48
4A	_	1r	.
4r	.	.	.
2r	.	.	.
=49	=49	=49	=49
8G	Two	1r	.
4G	thou-	.	.
8G	-sand	.	.
8A	miles	.	.
16G	_	.	.
16E	_	.	.
8G	I	.	.
8B-	roamed	.	.
=50	=50	=50	=50
8B	_	1r	.
16B	_	.	.
16A	_	.	.
8G	_	.	.
8r	.	.	.
8r	.	.	.
8r	.	.	.
8B	just	.	.
8B	to	.	.
=51	=51	=51	=51
4c	make	1r	.
4c	this	.	.
8c	dock	.	.
8B	my	.	.
8B-	_	.	.
[8A	home	.	.
=52	=52	=52	=52
8A]	_	1r	.
8r	.	.	.
8r	.	.	.
16B	Now	.	.
16A	_	.	.
8G	_	.	.
8G	I'm	.	.
8G	just	.	.
8E	gon'	.	.
=53	=53	=53	=53
4G	sit	1r	.
8G	at	.	.
8E	the	.	.
8G	dock	.	.
8G	of	.	.
8G	the	.	.
8A	bay	.	.
=54	=54	=54	=54
16G	_	1r	.
16E	_	.	.
8r	.	.	.
4r	.	.	.
8A	watch-	.	.
8B	-ing	.	.
8B	the	.	.
16d	tide	.	.
16e	_	.	.
=55	=55	=55	=55
8d	_	1r	.
16B	_	.	.
16A	_	.	.
8G	_	.	.
8r	.	.	.
8B	roll	.	.
8A	_	.	.
8G	a-	.	.
8A	-way	.	.
=56	=56	=56	=56
16G	_	1r	.
16E	_	.	.
8r	.	.	.
8r	.	.	.
8r	.	.	.
4e	ooh	.	.
16B	wee	.	.
16A	_	.	.
8G	_	.	.
=57	=57	=57	=57
8G	sit-	1r	.
8G	-tin	.	.
8G	on	.	.
8G	the	.	.
8G	dock	.	.
8G	of	.	.
8G	the	.	.
8A	bay	.	.
=58	=58	=58	=58
16G	_	1r	.
16E	_	.	.
8r	.	.	.
4r	.	.	.
8A	wast-	.	.
8G	_	.	.
8E	-in	.	.
[8G	time	.	.
=59	=59	=59	=59
4.G]	_	1r	.
16B	_	.	.
16A	_	.	.
4.G	_	.	.
[8E	_	.	.
=60	=60	=60	=60
4E]	_	2r	.
4r	.	.	.
4r	.	4r	.
8r	.	8r	.
8r	.	8ee	_
=61	=61	=61	=61
1r	.	4gg	_
.	.	4ee	_
.	.	8dd	_
.	.	4b	_
.	.	8b-	_
=62	=62	=62	=62
8r	.	8b	_
8r	.	8a	_
4r	.	8b	_
.	.	8a	_
2r	.	8a	_
.	.	4g	_
.	.	8a	_
=63	=63	=63	=63
1r	.	8b	_
.	.	8a	_
.	.	8b	_
.	.	8a	_
.	.	8a	_
.	.	8g	_
.	.	8a	_
.	.	8a	_
=64	=64	=64	=64
1r	.	8b	_
.	.	8dd	_
.	.	4dd	_
.	.	4.b	_
.	.	8ee	_
=65	=65	=65	=65
1r	.	4gg	_
.	.	4ee	_
.	.	8dd	_
.	.	8b	_
.	.	8b-	_
.	.	8b-	_
=66	=66	=66	=66
1r	.	8b	_
.	.	8a	_
.	.	8b	_
.	.	8a	_
.	.	8a	_
.	.	4g	_
.	.	8a	_
=67	=67	=67	=67
1r	.	8b	_
.	.	8dd	_
.	.	8b	_
.	.	8a	_
.	.	8a	_
.	.	8g	_
.	.	8a	_
.	.	8a	_
=68	=68	=68	=68
1r	.	8b	_
.	.	8dd	_
.	.	4dd	_
.	.	4.b	_
.	.	8r	.
r;	.	r;	.
r;	.	r;	.
*-	*-	*-	*-
!!!ENC: Nathaniel Condit-Schultz